actions/symbolic/zoom-fit-symbolic.svg

<?xml version="1.0" encoding="UTF-8" standalone="no"?>
<svg
   xmlns:dc="http://purl.org/dc/elements/1.1/"
   xmlns:cc="http://creativecommons.org/ns#"
   xmlns:rdf="http://www.w3.org/1999/02/22-rdf-syntax-ns#"
   xmlns:svg="http://www.w3.org/2000/svg"
   xmlns="http://www.w3.org/2000/svg"
   xmlns:sodipodi="http://sodipodi.sourceforge.net/DTD/sodipodi-0.dtd"
   xmlns:inkscape="http://www.inkscape.org/namespaces/inkscape"
   height="16"
   width="16"
   version="1.1"
   id="svg6"
   sodipodi:docname="zoom-fit-symbolic.svg"
   inkscape:version="0.92.2pre0 (973e216, 2017-07-25)">
  <metadata
     id="metadata12">
    <rdf:RDF>
      <cc:Work
         rdf:about="">
        <dc:format>image/svg+xml</dc:format>
        <dc:type
           rdf:resource="http://purl.org/dc/dcmitype/StillImage" />
      </cc:Work>
    </rdf:RDF>
  </metadata>
  <defs
     id="defs10" />
  <sodipodi:namedview
     pagecolor="#ffffff"
     bordercolor="#666666"
     borderopacity="1"
     objecttolerance="10"
     gridtolerance="10"
     guidetolerance="10"
     inkscape:pageopacity="0"
     inkscape:pageshadow="2"
     inkscape:window-width="1920"
     inkscape:window-height="1001"
     id="namedview8"
     showgrid="false"
     inkscape:zoom="14.75"
     inkscape:cx="8"
     inkscape:cy="8"
     inkscape:window-x="0"
     inkscape:window-y="0"
     inkscape:window-maximized="1"
     inkscape:current-layer="svg6" />
  <g
     color="#000"
     transform="translate(-632 -160)"
     id="g4"
     style="fill:#808080;fill-opacity:1">
    <path
       d="M639 161c-3.31 0-6 2.69-6 6s2.69 6 6 6a5.97 5.97 0 0 0 3.871-1.422l3.275 3.276.708-.708-3.276-3.275A5.97 5.97 0 0 0 645 167c0-3.31-2.69-6-6-6zm0 1a5 5 0 0 1 5 5 5 5 0 0 1-5 5 5 5 0 0 1-5-5 5 5 0 0 1 5-5z"
       fill="#808080"
       font-family="sans-serif"
       font-weight="400"
       overflow="visible"
       style="line-height:normal;font-variant-ligatures:none;font-variant-position:normal;font-variant-caps:normal;font-variant-numeric:normal;font-variant-alternates:normal;font-feature-settings:normal;text-indent:0;text-align:start;text-decoration-line:none;text-decoration-style:solid;text-decoration-color:#000;text-transform:none;shape-padding:0;isolation:auto;mix-blend-mode:normal;marker:none;fill:#808080;fill-opacity:1"
       white-space="normal"
       id="path2" />
  </g>
</svg>

<svg xmlns="http://www.w3.org/2000/svg" width="16" height="16" version="1.1">
 <g style="fill:#808080" transform="translate(-632,-160)">
  <path style="fill:#808080" d="M 639,161 C 635.69,161 633,163.69 633,167 633,170.31 635.69,173 639,173 A 5.97,5.97 0 0 0 642.87,171.58 L 646.15,174.85 646.85,174.15 643.58,170.87 A 5.97,5.97 0 0 0 645,167 C 645,163.69 642.31,161 639,161 Z M 639,162 A 5,5 0 0 1 644,167 5,5 0 0 1 639,172 5,5 0 0 1 634,167 5,5 0 0 1 639,162 Z"/>
 </g>
</svg>
